bernoullicharts/pow_x_5_1__bits.svg

<?xml version="1.0" encoding="utf-8" standalone="no"?>
<!DOCTYPE svg PUBLIC "-//W3C//DTD SVG 1.1//EN"
  "http://www.w3.org/Graphics/SVG/1.1/DTD/svg11.dtd">
<!-- Created with matplotlib (https://matplotlib.org/) -->
<svg height="345.6pt" version="1.1" viewBox="0 0 460.8 345.6" width="460.8pt" xmlns="http://www.w3.org/2000/svg" xmlns:xlink="http://www.w3.org/1999/xlink">
 <defs>
  <style type="text/css">
*{stroke-linecap:butt;stroke-linejoin:round;}
  </style>
 </defs>
 <g id="figure_1">
  <g id="patch_1">
   <path d="M 0 345.6 
L 460.8 345.6 
L 460.8 0 
L 0 0 
z
" style="fill:#ffffff;"/>
  </g>
  <g id="axes_1">
   <g id="patch_2">
    <path d="M 57.6 307.584 
L 414.72 307.584 
L 414.72 41.472 
L 57.6 41.472 
z
" style="fill:#ffffff;"/>
   </g>
   <g id="matplotlib.axis_1">
    <g id="xtick_1">
     <g id="line2d_1">
      <defs>
       <path d="M 0 0 
L 0 3.5 
" id="m16e0770268" style="stroke:#000000;stroke-width:0.8;"/>
      </defs>
      <g>
       <use style="stroke:#000000;stroke-width:0.8;" x="73.800255" xlink:href="#m16e0770268" y="307.584"/>
      </g>
     </g>
     <g id="text_1">
      <text style="font-family:DejaVu Sans;font-size:10px;font-style:normal;font-weight:normal;text-anchor:middle;" transform="rotate(-0, 73.800255, 322.182437)" x="73.800255" y="322.182437">0.0</text>
     </g>
    </g>
    <g id="xtick_2">
     <g id="line2d_2">
      <g>
       <use style="stroke:#000000;stroke-width:0.8;" x="138.744153" xlink:href="#m16e0770268" y="307.584"/>
      </g>
     </g>
     <g id="text_2">
      <text style="font-family:DejaVu Sans;font-size:10px;font-style:normal;font-weight:normal;text-anchor:middle;" transform="rotate(-0, 138.744153, 322.182437)" x="138.744153" y="322.182437">0.2</text>
     </g>
    </g>
    <g id="xtick_3">
     <g id="line2d_3">
      <g>
       <use style="stroke:#000000;stroke-width:0.8;" x="203.688051" xlink:href="#m16e0770268" y="307.584"/>
      </g>
     </g>
     <g id="text_3">
      <text style="font-family:DejaVu Sans;font-size:10px;font-style:normal;font-weight:normal;text-anchor:middle;" transform="rotate(-0, 203.688051, 322.182437)" x="203.688051" y="322.182437">0.4</text>
     </g>
    </g>
    <g id="xtick_4">
     <g id="line2d_4">
      <g>
       <use style="stroke:#000000;stroke-width:0.8;" x="268.631949" xlink:href="#m16e0770268" y="307.584"/>
      </g>
     </g>
     <g id="text_4">
      <text style="font-family:DejaVu Sans;font-size:10px;font-style:normal;font-weight:normal;text-anchor:middle;" transform="rotate(-0, 268.631949, 322.182437)" x="268.631949" y="322.182437">0.6</text>
     </g>
    </g>
    <g id="xtick_5">
     <g id="line2d_5">
      <g>
       <use style="stroke:#000000;stroke-width:0.8;" x="333.575847" xlink:href="#m16e0770268" y="307.584"/>
      </g>
     </g>
     <g id="text_5">
      <text style="font-family:DejaVu Sans;font-size:10px;font-style:normal;font-weight:normal;text-anchor:middle;" transform="rotate(-0, 333.575847, 322.182437)" x="333.575847" y="322.182437">0.8</text>
     </g>
    </g>
    <g id="xtick_6">
     <g id="line2d_6">
      <g>
       <use style="stroke:#000000;stroke-width:0.8;" x="398.519745" xlink:href="#m16e0770268" y="307.584"/>
      </g>
     </g>
     <g id="text_6">
      <text style="font-family:DejaVu Sans;font-size:10px;font-style:normal;font-weight:normal;text-anchor:middle;" transform="rotate(-0, 398.519745, 322.182437)" x="398.519745" y="322.182437">1.0</text>
     </g>
    </g>
    <g id="text_7">
     <text style="font-family:DejaVu Sans;font-size:10px;font-style:normal;font-weight:normal;text-anchor:middle;" transform="rotate(-0, 236.16, 335.860562)" x="236.16" y="335.860562">Probability</text>
    </g>
   </g>
   <g id="matplotlib.axis_2">
    <g id="ytick_1">
     <g id="line2d_7">
      <defs>
       <path d="M 0 0 
L -3.5 0 
" id="mecf4de516c" style="stroke:#000000;stroke-width:0.8;"/>
      </defs>
      <g>
       <use style="stroke:#000000;stroke-width:0.8;" x="57.6" xlink:href="#mecf4de516c" y="294.285913"/>
      </g>
     </g>
     <g id="text_8">
      <text style="font-family:DejaVu Sans;font-size:10px;font-style:normal;font-weight:normal;text-anchor:end;" transform="rotate(-0, 50.6, 298.085132)" x="50.6" y="298.085132">2</text>
     </g>
    </g>
    <g id="ytick_2">
     <g id="line2d_8">
      <g>
       <use style="stroke:#000000;stroke-width:0.8;" x="57.6" xlink:href="#mecf4de516c" y="264.233739"/>
      </g>
     </g>
     <g id="text_9">
      <text style="font-family:DejaVu Sans;font-size:10px;font-style:normal;font-weight:normal;text-anchor:end;" transform="rotate(-0, 50.6, 268.032958)" x="50.6" y="268.032958">3</text>
     </g>
    </g>
    <g id="ytick_3">
     <g id="line2d_9">
      <g>
       <use style="stroke:#000000;stroke-width:0.8;" x="57.6" xlink:href="#mecf4de516c" y="234.181565"/>
      </g>
     </g>
     <g id="text_10">
      <text style="font-family:DejaVu Sans;font-size:10px;font-style:normal;font-weight:normal;text-anchor:end;" transform="rotate(-0, 50.6, 237.980784)" x="50.6" y="237.980784">4</text>
     </g>
    </g>
    <g id="ytick_4">
     <g id="line2d_10">
      <g>
       <use style="stroke:#000000;stroke-width:0.8;" x="57.6" xlink:href="#mecf4de516c" y="204.129391"/>
      </g>
     </g>
     <g id="text_11">
      <text style="font-family:DejaVu Sans;font-size:10px;font-style:normal;font-weight:normal;text-anchor:end;" transform="rotate(-0, 50.6, 207.92861)" x="50.6" y="207.92861">5</text>
     </g>
    </g>
    <g id="ytick_5">
     <g id="line2d_11">
      <g>
       <use style="stroke:#000000;stroke-width:0.8;" x="57.6" xlink:href="#mecf4de516c" y="174.077217"/>
      </g>
     </g>
     <g id="text_12">
      <text style="font-family:DejaVu Sans;font-size:10px;font-style:normal;font-weight:normal;text-anchor:end;" transform="rotate(-0, 50.6, 177.876436)" x="50.6" y="177.876436">6</text>
     </g>
    </g>
    <g id="ytick_6">
     <g id="line2d_12">
      <g>
       <use style="stroke:#000000;stroke-width:0.8;" x="57.6" xlink:href="#mecf4de516c" y="144.025043"/>
      </g>
     </g>
     <g id="text_13">
      <text style="font-family:DejaVu Sans;font-size:10px;font-style:normal;font-weight:normal;text-anchor:end;" transform="rotate(-0, 50.6, 147.824262)" x="50.6" y="147.824262">7</text>
     </g>
    </g>
    <g id="ytick_7">
     <g id="line2d_13">
      <g>
       <use style="stroke:#000000;stroke-width:0.8;" x="57.6" xlink:href="#mecf4de516c" y="113.97287"/>
      </g>
     </g>
     <g id="text_14">
      <text style="font-family:DejaVu Sans;font-size:10px;font-style:normal;font-weight:normal;text-anchor:end;" transform="rotate(-0, 50.6, 117.772088)" x="50.6" y="117.772088">8</text>
     </g>
    </g>
    <g id="ytick_8">
     <g id="line2d_14">
      <g>
       <use style="stroke:#000000;stroke-width:0.8;" x="57.6" xlink:href="#mecf4de516c" y="83.920696"/>
      </g>
     </g>
     <g id="text_15">
      <text style="font-family:DejaVu Sans;font-size:10px;font-style:normal;font-weight:normal;text-anchor:end;" transform="rotate(-0, 50.6, 87.719914)" x="50.6" y="87.719914">9</text>
     </g>
    </g>
    <g id="ytick_9">
     <g id="line2d_15">
      <g>
       <use style="stroke:#000000;stroke-width:0.8;" x="57.6" xlink:href="#mecf4de516c" y="53.868522"/>
      </g>
     </g>
     <g id="text_16">
      <text style="font-family:DejaVu Sans;font-size:10px;font-style:normal;font-weight:normal;text-anchor:end;" transform="rotate(-0, 50.6, 57.66774)" x="50.6" y="57.66774">10</text>
     </g>
    </g>
    <g id="text_17">
     <text style="font-family:DejaVu Sans;font-size:10px;font-style:normal;font-weight:normal;text-anchor:middle;" transform="rotate(-90, 31.795312, 174.528)" x="31.795312" y="174.528">Average Bits Consumed Per Call</text>
    </g>
   </g>
   <g id="line2d_16">
    <path clip-path="url(#pbf547b3642)" d="M 73.832727 294.285913 
L 77.112066 292.062052 
L 80.391405 295.06727 
L 83.670744 295.488 
L 86.950083 291.941843 
L 90.229421 289.9584 
L 93.50876 293.564661 
L 96.788099 294.045496 
L 100.067438 287.974957 
L 103.346777 288.15527 
L 106.626116 283.647443 
L 109.905455 281.964522 
L 113.184793 284.969739 
L 116.464132 285.991513 
L 119.743471 285.39047 
L 123.02281 280.642226 
L 126.302149 283.0464 
L 129.581488 285.8112 
L 132.860826 283.707548 
L 136.140165 278.358261 
L 139.419504 280.461913 
L 142.698843 276.795548 
L 145.978182 273.069078 
L 149.257521 276.1344 
L 152.53686 275.413148 
L 155.816198 269.402713 
L 159.095537 276.795548 
L 162.374876 269.162296 
L 165.654215 276.434922 
L 168.933554 270.664904 
L 172.212893 268.501148 
L 175.492231 272.347826 
L 178.77157 265.616139 
L 182.050909 260.146643 
L 185.330248 258.644035 
L 188.609587 260.50727 
L 191.888926 254.677148 
L 195.168264 256.840904 
L 198.447603 259.605704 
L 201.726942 252.753809 
L 205.006281 250.950678 
L 208.28562 254.737252 
L 211.564959 254.256417 
L 214.844298 247.945461 
L 218.123636 245.240765 
L 221.402975 244.519513 
L 224.682314 247.765148 
L 227.961653 239.831374 
L 231.240992 241.213774 
L 234.520331 241.394087 
L 237.799669 233.820939 
L 241.079008 234.001252 
L 244.358347 237.367096 
L 247.637686 233.28 
L 250.917025 232.198122 
L 254.196364 221.379339 
L 257.475702 222.64153 
L 260.755041 227.389774 
L 264.03438 215.368904 
L 267.313719 219.395896 
L 270.593058 215.489113 
L 273.872397 213.50567 
L 277.151736 210.260035 
L 280.431074 211.341913 
L 283.710413 200.162504 
L 286.989752 193.971757 
L 290.269091 199.321043 
L 293.54843 197.698226 
L 296.827769 195.173843 
L 300.107107 190.125078 
L 303.386446 193.490922 
L 306.665785 188.321948 
L 309.945124 176.842017 
L 313.224463 170.290643 
L 316.503802 174.738365 
L 319.78314 170.290643 
L 323.062479 161.936139 
L 326.341818 158.329878 
L 329.621157 153.641739 
L 332.900496 158.570296 
L 336.179835 153.461426 
L 339.459174 149.013704 
L 342.738512 144.926609 
L 346.017851 132.78553 
L 349.29719 144.38567 
L 352.576529 123.168835 
L 355.855868 129.720209 
L 359.135207 116.256835 
L 362.414545 115.595687 
L 365.693884 110.306504 
L 368.973223 108.503374 
L 372.252562 98.345739 
L 375.531901 88.789148 
L 378.81124 91.133217 
L 382.090579 84.161113 
L 385.369917 74.844939 
L 388.649256 73.943374 
L 391.928595 70.878052 
L 395.207934 53.568 
L 398.487273 58.616765 
" style="fill:none;stroke:#1f77b4;stroke-linecap:square;stroke-width:1.5;"/>
   </g>
   <g id="patch_3">
    <path d="M 57.6 307.584 
L 57.6 41.472 
" style="fill:none;stroke:#000000;stroke-linecap:square;stroke-linejoin:miter;stroke-width:0.8;"/>
   </g>
   <g id="patch_4">
    <path d="M 414.72 307.584 
L 414.72 41.472 
" style="fill:none;stroke:#000000;stroke-linecap:square;stroke-linejoin:miter;stroke-width:0.8;"/>
   </g>
   <g id="patch_5">
    <path d="M 57.6 307.584 
L 414.72 307.584 
" style="fill:none;stroke:#000000;stroke-linecap:square;stroke-linejoin:miter;stroke-width:0.8;"/>
   </g>
   <g id="patch_6">
    <path d="M 57.6 41.472 
L 414.72 41.472 
" style="fill:none;stroke:#000000;stroke-linecap:square;stroke-linejoin:miter;stroke-width:0.8;"/>
   </g>
   <g id="text_18">
    <text style="font-family:DejaVu Sans;font-size:12px;font-style:normal;font-weight:normal;text-anchor:middle;" transform="rotate(-0, 236.16, 35.472)" x="236.16" y="35.472">Avg. Bits Consumed by pow(x,5/1) Algorithm</text>
   </g>
   <g id="legend_1">
    <g id="patch_7">
     <path d="M 64.6 64.150125 
L 150.239062 64.150125 
Q 152.239062 64.150125 152.239062 62.150125 
L 152.239062 48.472 
Q 152.239062 46.472 150.239062 46.472 
L 64.6 46.472 
Q 62.6 46.472 62.6 48.472 
L 62.6 62.150125 
Q 62.6 64.150125 64.6 64.150125 
z
" style="fill:#ffffff;opacity:0.8;stroke:#cccccc;stroke-linejoin:miter;"/>
    </g>
    <g id="line2d_17">
     <path d="M 66.6 54.570438 
L 86.6 54.570438 
" style="fill:none;stroke:#1f77b4;stroke-linecap:square;stroke-width:1.5;"/>
    </g>
    <g id="line2d_18"/>
    <g id="text_19">
     <text style="font-family:DejaVu Sans;font-size:10px;font-style:normal;font-weight:normal;text-anchor:start;" transform="rotate(-0, 94.6, 58.070438)" x="94.6" y="58.070438">pow(x,5/1)</text>
    </g>
   </g>
  </g>
 </g>
 <defs>
  <clipPath id="pbf547b3642">
   <rect height="266.112" width="357.12" x="57.6" y="41.472"/>
  </clipPath>
 </defs>
</svg>

<svg height="460.8" viewBox="0 0 460.8 345.6" width="614.4" xmlns="http://www.w3.org/2000/svg" xmlns:xlink="http://www.w3.org/1999/xlink"><defs><style>*{stroke-linecap:butt;stroke-linejoin:round}</style></defs><g id="figure_1"><path d="M0 345.6h460.8V0H0z" fill="#fff" id="patch_1"/><g id="axes_1"><path d="M57.6 307.584h357.12V41.472H57.6z" fill="#fff" id="patch_2"/><g id="matplotlib.axis_1"><g id="xtick_1"><g id="line2d_1"><defs><path d="M0 0v3.5" id="m16e0770268" stroke="#000" stroke-width=".8"/></defs><use x="73.8" xlink:href="#m16e0770268" y="307.584" stroke="#000" stroke-width=".8"/></g><text x="73.8" y="322.182" font-family="DejaVu Sans" font-size="10" font-weight="400" text-anchor="middle" id="text_1">0.0</text></g><g id="xtick_2"><use x="138.744" xlink:href="#m16e0770268" y="307.584" stroke="#000" stroke-width=".8" id="line2d_2"/><text x="138.744" y="322.182" font-family="DejaVu Sans" font-size="10" font-weight="400" text-anchor="middle" id="text_2">0.2</text></g><g id="xtick_3"><use x="203.688" xlink:href="#m16e0770268" y="307.584" stroke="#000" stroke-width=".8" id="line2d_3"/><text x="203.688" y="322.182" font-family="DejaVu Sans" font-size="10" font-weight="400" text-anchor="middle" id="text_3">0.4</text></g><g id="xtick_4"><use x="268.632" xlink:href="#m16e0770268" y="307.584" stroke="#000" stroke-width=".8" id="line2d_4"/><text x="268.632" y="322.182" font-family="DejaVu Sans" font-size="10" font-weight="400" text-anchor="middle" id="text_4">0.6</text></g><g id="xtick_5"><use x="333.576" xlink:href="#m16e0770268" y="307.584" stroke="#000" stroke-width=".8" id="line2d_5"/><text x="333.576" y="322.182" font-family="DejaVu Sans" font-size="10" font-weight="400" text-anchor="middle" id="text_5">0.8</text></g><g id="xtick_6"><use x="398.52" xlink:href="#m16e0770268" y="307.584" stroke="#000" stroke-width=".8" id="line2d_6"/><text x="398.52" y="322.182" font-family="DejaVu Sans" font-size="10" font-weight="400" text-anchor="middle" id="text_6">1.0</text></g><text x="236.16" y="335.861" font-family="DejaVu Sans" font-size="10" font-weight="400" text-anchor="middle" id="text_7">Probability</text></g><g id="matplotlib.axis_2"><g id="ytick_1"><g id="line2d_7"><defs><path d="M0 0h-3.5" id="mecf4de516c" stroke="#000" stroke-width=".8"/></defs><use x="57.6" xlink:href="#mecf4de516c" y="294.286" stroke="#000" stroke-width=".8"/></g><text x="50.6" y="298.085" font-family="DejaVu Sans" font-size="10" font-weight="400" text-anchor="end" id="text_8">2</text></g><g id="ytick_2"><use x="57.6" xlink:href="#mecf4de516c" y="264.234" stroke="#000" stroke-width=".8" id="line2d_8"/><text x="50.6" y="268.033" font-family="DejaVu Sans" font-size="10" font-weight="400" text-anchor="end" id="text_9">3</text></g><g id="ytick_3"><use x="57.6" xlink:href="#mecf4de516c" y="234.182" stroke="#000" stroke-width=".8" id="line2d_9"/><text x="50.6" y="237.981" font-family="DejaVu Sans" font-size="10" font-weight="400" text-anchor="end" id="text_10">4</text></g><g id="ytick_4"><use x="57.6" xlink:href="#mecf4de516c" y="204.129" stroke="#000" stroke-width=".8" id="line2d_10"/><text x="50.6" y="207.929" font-family="DejaVu Sans" font-size="10" font-weight="400" text-anchor="end" id="text_11">5</text></g><g id="ytick_5"><use x="57.6" xlink:href="#mecf4de516c" y="174.077" stroke="#000" stroke-width=".8" id="line2d_11"/><text x="50.6" y="177.876" font-family="DejaVu Sans" font-size="10" font-weight="400" text-anchor="end" id="text_12">6</text></g><g id="ytick_6"><use x="57.6" xlink:href="#mecf4de516c" y="144.025" stroke="#000" stroke-width=".8" id="line2d_12"/><text x="50.6" y="147.824" font-family="DejaVu Sans" font-size="10" font-weight="400" text-anchor="end" id="text_13">7</text></g><g id="ytick_7"><use x="57.6" xlink:href="#mecf4de516c" y="113.973" stroke="#000" stroke-width=".8" id="line2d_13"/><text x="50.6" y="117.772" font-family="DejaVu Sans" font-size="10" font-weight="400" text-anchor="end" id="text_14">8</text></g><g id="ytick_8"><use x="57.6" xlink:href="#mecf4de516c" y="83.921" stroke="#000" stroke-width=".8" id="line2d_14"/><text x="50.6" y="87.72" font-family="DejaVu Sans" font-size="10" font-weight="400" text-anchor="end" id="text_15">9</text></g><g id="ytick_9"><use x="57.6" xlink:href="#mecf4de516c" y="53.869" stroke="#000" stroke-width=".8" id="line2d_15"/><text x="50.6" y="57.668" font-family="DejaVu Sans" font-size="10" font-weight="400" text-anchor="end" id="text_16">10</text></g><text transform="rotate(-90 31.795 174.528)" x="31.795" y="174.528" font-family="DejaVu Sans" font-size="10" font-weight="400" text-anchor="middle" id="text_17">Average Bits Consumed Per Call</text></g><path clip-path="url(#pbf547b3642)" d="M73.833 294.286l3.28-2.224 3.278 3.005 3.28.421 3.28-3.546 3.278-1.984 3.28 3.607 3.28.48 3.278-6.07 3.28.18 3.28-4.508 3.278-1.682 3.28 3.005 3.28 1.022 3.278-.602 3.28-4.748 3.28 2.404 3.278 2.765 3.28-2.103 3.28-5.35 3.279 2.104 3.279-3.666 3.28-3.727 3.279 3.065 3.279-.72 3.28-6.011 3.279 7.393 3.279-7.634 3.28 7.273 3.279-5.77 3.279-2.164 3.28 3.847 3.279-6.732 3.279-5.47 3.28-1.502 3.279 1.863 3.279-5.83 3.28 2.164 3.279 2.765 3.279-6.852 3.28-1.803 3.279 3.786 3.279-.48 3.28-6.312 3.279-2.704 3.279-.721 3.28 3.245 3.279-7.934 3.279 1.383 3.28.18 3.279-7.573 3.279.18 3.28 3.366 3.279-4.087 3.279-1.082 3.28-10.819 3.279 1.263 3.279 4.748 3.28-12.021 3.279 4.027 3.28-3.907 3.278-1.983 3.28-3.246 3.28 1.082 3.278-11.18 3.28-6.19 3.28 5.349 3.278-1.623 3.28-2.524 3.28-5.049 3.278 3.366 3.28-5.17 3.28-11.479 3.278-6.551 3.28 4.447 3.28-4.447 3.278-8.355 3.28-3.606 3.28-4.688 3.278 4.928 3.28-5.109 3.28-4.447 3.279-4.087 3.279-12.141 3.28 11.6 3.279-21.217 3.279 6.551 3.28-13.463 3.279-.661 3.279-5.29 3.28-1.803 3.279-10.157 3.279-9.557 3.28 2.344 3.279-6.972 3.279-9.316 3.28-.902 3.279-3.065 3.279-17.31 3.28 5.049" fill="none" stroke="#1f77b4" stroke-linecap="square" stroke-width="1.5" id="line2d_16"/><path d="M57.6 307.584V41.472" fill="none" stroke="#000" stroke-linecap="square" stroke-width=".8" id="patch_3"/><path d="M414.72 307.584V41.472" fill="none" stroke="#000" stroke-linecap="square" stroke-width=".8" id="patch_4"/><path d="M57.6 307.584h357.12" fill="none" stroke="#000" stroke-linecap="square" stroke-width=".8" id="patch_5"/><path d="M57.6 41.472h357.12" fill="none" stroke="#000" stroke-linecap="square" stroke-width=".8" id="patch_6"/><text x="236.16" y="35.472" font-family="DejaVu Sans" font-size="12" font-weight="400" text-anchor="middle" id="text_18">Avg. Bits Consumed by pow(x,5/1) Algorithm</text><g id="legend_1"><path d="M64.6 64.15h85.64q2 0 2-2V48.472q0-2-2-2H64.6q-2 0-2 2V62.15q0 2 2 2z" fill="#fff" opacity=".8" stroke="#ccc" id="patch_7"/><path d="M66.6 54.57h20" fill="none" stroke="#1f77b4" stroke-linecap="square" stroke-width="1.5" id="line2d_17"/><text x="94.6" y="58.07" font-family="DejaVu Sans" font-size="10" font-weight="400" id="text_19">pow(x,5/1)</text></g></g></g><defs><clipPath id="pbf547b3642"><path d="M57.6 41.472h357.12v266.112H57.6z"/></clipPath></defs></svg>
